src/assets/img/icons/dark/icon-attention.svg

<svg width="19" height="18" viewBox="0 0 19 18" fill="none" xmlns="http://www.w3.org/2000/svg">
<path d="M18.3085 12.9632C18.1604 12.5922 17.7396 12.4114 17.3685 12.5596C16.9975 12.7077 16.8168 13.1285 16.9649 13.4995C17.1532 13.9713 17.0914 14.5099 16.7997 14.9405C16.5078 15.3713 16.0404 15.6184 15.5175 15.6184H3.00461C2.43416 15.6184 1.9276 15.3207 1.64949 14.8221C1.37094 14.3226 1.38403 13.734 1.6845 13.2475L7.94094 3.11788C8.22582 2.65664 8.71929 2.38127 9.26105 2.38127C9.80281 2.38127 10.2962 2.65664 10.5812 3.11788L15.2083 10.6096C15.4182 10.9495 15.864 11.0549 16.2038 10.8449C16.5437 10.635 16.6491 10.1893 16.4391 9.84939L11.8119 2.35765C11.2616 1.46656 10.308 0.93457 9.26101 0.93457C8.21407 0.93457 7.26047 1.4666 6.71011 2.35765L0.453661 12.4873C-0.126366 13.4265 -0.151613 14.5627 0.386059 15.5268C0.923296 16.49 1.90217 17.065 3.00461 17.065H15.5175C16.528 17.065 17.4319 16.5864 17.9973 15.7519C18.5585 14.9237 18.6748 13.8812 18.3085 12.9632Z" fill="#4FBB9E"/>
<path d="M9.26161 14.2074C9.66111 14.2074 9.98494 13.8836 9.98494 13.4841C9.98494 13.0846 9.66111 12.7607 9.26161 12.7607H9.26124C8.86174 12.7607 8.53809 13.0846 8.53809 13.4841C8.53809 13.8836 8.8621 14.2074 9.26161 14.2074Z" fill="#4FBB9E"/>
<path d="M9.98476 10.953V5.63642C9.98476 5.23692 9.66093 4.91309 9.26142 4.91309C8.86192 4.91309 8.53809 5.23692 8.53809 5.63642V10.953C8.53809 11.3525 8.86192 11.6763 9.26142 11.6763C9.66093 11.6763 9.98476 11.3525 9.98476 10.953Z" fill="#4FBB9E"/>
</svg>

<svg xmlns="http://www.w3.org/2000/svg" width="19" height="18" fill="none"><path fill="#4FBB9E" d="M18.3 12.96a.72.72 0 10-1.34.54 1.55 1.55 0 01-1.44 2.12H3c-.57 0-1.07-.3-1.35-.8s-.27-1.09.03-1.57L7.94 3.12a1.54 1.54 0 012.64 0l4.63 7.49a.72.72 0 101.23-.76l-4.63-7.5A2.98 2.98 0 009.26.94c-1.05 0-2 .54-2.55 1.43L.45 12.49c-.58.94-.6 2.07-.06 3.04A2.96 2.96 0 003 17.07h12.52c1 0 1.91-.48 2.48-1.32a3 3 0 00.3-2.79z"/><path fill="#4FBB9E" d="M9.26 14.2a.72.72 0 100-1.44.72.72 0 100 1.45zM9.98 10.95V5.64a.72.72 0 10-1.44 0v5.31a.72.72 0 101.44 0z"/></svg>
